X:1
T:Lake Tahoe, 88.88.8
T:Lake Tahoe, 88.88.8
T:John Robson Sweney, 1891
T:Public Domain Courtesy of the Cyber Hymnal™
C:John Robson Sweney, 1891
Z:Public Domain
Z:Courtesy of the Cyber Hymnal™
%%score ( 1 2 ) ( 3 4 )
L:1/8
Q:1/4=87
M:3/4
K:G
V:1 treble 
V:2 treble 
V:3 bass 
V:4 bass 
V:1
 [B,D]2 | [DB]>[DB] [DB]3 [DB] | [CA]>[B,G] [B,D]3 [B,D] | [CA]>[CA] [CA]3 [CF] | %4
 [CE]>[CD] [B,G]3 D | [GB]>[GB] [Gd]3 [GB] | [Gd]>[G^c] [F=c]3 D | F>A c3 [DA] | %8
 [DA]>[DG] [GB]3 [B,D] | [CE]>[CG] [B,G]3 [B,D] | [CE]>[CG] [B,G]2 |] %11
V:2
 x2 | x6 | x6 | x6 | x5 D | x6 | x5 D | F>A c3 x | x6 | x6 | x4 |] %11
V:3
 G,2 | G,>G, G,3 [G,,G,] | [G,,D,]>[G,,D,] [G,,G,]3 G, | [D,F,]>[D,F,] [D,F,]3 [D,A,] | %4
 [D,G,]>[D,F,] [G,,G,]3 [G,B,] | [G,D]>[G,D] [G,B,]3 [G,D] | [D,B,]>[D,_B,] [D,A,]3 D, | %7
 F,>A, C3 [F,C] | [G,C]>[G,B,] [G,D]3 [G,,G,] | [C,G,]>[C,E,] [G,,D,]3 [G,,G,] | %10
 [C,G,]>[C,E,] [G,,D,]2 |] %11
V:4
 G,2 | G,>G, G,3 x | x5 G, | x6 | x6 | x6 | x5 D, | F,>A, C3 x | x6 | x6 | x4 |] %11

